public/icons/courses/calendar.svg

<svg width="20" height="20" viewBox="0 0 20 20" fill="none" xmlns="http://www.w3.org/2000/svg">
<path id="Vector" d="M0 18.9286C0 19.2127 0.112882 19.4853 0.313814 19.6862C0.514746 19.8871 0.787268 20 1.07143 20H18.9286C19.2127 20 19.4853 19.8871 19.6862 19.6862C19.8871 19.4853 20 19.2127 20 18.9286V6.42857H0V18.9286ZM14.2857 8.03571C14.2857 7.98835 14.3045 7.94293 14.338 7.90945C14.3715 7.87596 14.4169 7.85714 14.4643 7.85714H16.25C16.2974 7.85714 16.3428 7.87596 16.3763 7.90945C16.4098 7.94293 16.4286 7.98835 16.4286 8.03571V9.82143C16.4286 9.86879 16.4098 9.91421 16.3763 9.9477C16.3428 9.98119 16.2974 10 16.25 10H14.4643C14.4169 10 14.3715 9.98119 14.338 9.9477C14.3045 9.91421 14.2857 9.86879 14.2857 9.82143V8.03571ZM14.2857 11.6071C14.2857 11.5598 14.3045 11.5144 14.338 11.4809C14.3715 11.4474 14.4169 11.4286 14.4643 11.4286H16.25C16.2974 11.4286 16.3428 11.4474 16.3763 11.4809C16.4098 11.5144 16.4286 11.5598 16.4286 11.6071V13.3929C16.4286 13.4402 16.4098 13.4856 16.3763 13.5191C16.3428 13.5526 16.2974 13.5714 16.25 13.5714H14.4643C14.4169 13.5714 14.3715 13.5526 14.338 13.5191C14.3045 13.4856 14.2857 13.4402 14.2857 13.3929V11.6071ZM10.7143 8.03571C10.7143 7.98835 10.7331 7.94293 10.7666 7.90945C10.8001 7.87596 10.8455 7.85714 10.8929 7.85714H12.6786C12.7259 7.85714 12.7714 7.87596 12.8048 7.90945C12.8383 7.94293 12.8571 7.98835 12.8571 8.03571V9.82143C12.8571 9.86879 12.8383 9.91421 12.8048 9.9477C12.7714 9.98119 12.7259 10 12.6786 10H10.8929C10.8455 10 10.8001 9.98119 10.7666 9.9477C10.7331 9.91421 10.7143 9.86879 10.7143 9.82143V8.03571ZM10.7143 11.6071C10.7143 11.5598 10.7331 11.5144 10.7666 11.4809C10.8001 11.4474 10.8455 11.4286 10.8929 11.4286H12.6786C12.7259 11.4286 12.7714 11.4474 12.8048 11.4809C12.8383 11.5144 12.8571 11.5598 12.8571 11.6071V13.3929C12.8571 13.4402 12.8383 13.4856 12.8048 13.5191C12.7714 13.5526 12.7259 13.5714 12.6786 13.5714H10.8929C10.8455 13.5714 10.8001 13.5526 10.7666 13.5191C10.7331 13.4856 10.7143 13.4402 10.7143 13.3929V11.6071ZM10.7143 15.1786C10.7143 15.1312 10.7331 15.0858 10.7666 15.0523C10.8001 15.0188 10.8455 15 10.8929 15H12.6786C12.7259 15 12.7714 15.0188 12.8048 15.0523C12.8383 15.0858 12.8571 15.1312 12.8571 15.1786V16.9643C12.8571 17.0116 12.8383 17.0571 12.8048 17.0906C12.7714 17.124 12.7259 17.1429 12.6786 17.1429H10.8929C10.8455 17.1429 10.8001 17.124 10.7666 17.0906C10.7331 17.0571 10.7143 17.0116 10.7143 16.9643V15.1786ZM7.14286 11.6071C7.14286 11.5598 7.16167 11.5144 7.19516 11.4809C7.22865 11.4474 7.27407 11.4286 7.32143 11.4286H9.10714C9.1545 11.4286 9.19992 11.4474 9.23341 11.4809C9.2669 11.5144 9.28571 11.5598 9.28571 11.6071V13.3929C9.28571 13.4402 9.2669 13.4856 9.23341 13.5191C9.19992 13.5526 9.1545 13.5714 9.10714 13.5714H7.32143C7.27407 13.5714 7.22865 13.5526 7.19516 13.5191C7.16167 13.4856 7.14286 13.4402 7.14286 13.3929V11.6071ZM7.14286 15.1786C7.14286 15.1312 7.16167 15.0858 7.19516 15.0523C7.22865 15.0188 7.27407 15 7.32143 15H9.10714C9.1545 15 9.19992 15.0188 9.23341 15.0523C9.2669 15.0858 9.28571 15.1312 9.28571 15.1786V16.9643C9.28571 17.0116 9.2669 17.0571 9.23341 17.0906C9.19992 17.124 9.1545 17.1429 9.10714 17.1429H7.32143C7.27407 17.1429 7.22865 17.124 7.19516 17.0906C7.16167 17.0571 7.14286 17.0116 7.14286 16.9643V15.1786ZM3.57143 11.6071C3.57143 11.5598 3.59024 11.5144 3.62373 11.4809C3.65722 11.4474 3.70264 11.4286 3.75 11.4286H5.53571C5.58307 11.4286 5.62849 11.4474 5.66198 11.4809C5.69547 11.5144 5.71429 11.5598 5.71429 11.6071V13.3929C5.71429 13.4402 5.69547 13.4856 5.66198 13.5191C5.62849 13.5526 5.58307 13.5714 5.53571 13.5714H3.75C3.70264 13.5714 3.65722 13.5526 3.62373 13.5191C3.59024 13.4856 3.57143 13.4402 3.57143 13.3929V11.6071ZM3.57143 15.1786C3.57143 15.1312 3.59024 15.0858 3.62373 15.0523C3.65722 15.0188 3.70264 15 3.75 15H5.53571C5.58307 15 5.62849 15.0188 5.66198 15.0523C5.69547 15.0858 5.71429 15.1312 5.71429 15.1786V16.9643C5.71429 17.0116 5.69547 17.0571 5.66198 17.0906C5.62849 17.124 5.58307 17.1429 5.53571 17.1429H3.75C3.70264 17.1429 3.65722 17.124 3.62373 17.0906C3.59024 17.0571 3.57143 17.0116 3.57143 16.9643V15.1786ZM18.9286 1.42857H16.4321V0H14.2893V1.42857H5.71071V0H3.56786V1.42857H1.07143C0.931262 1.42739 0.792248 1.45396 0.662395 1.50675C0.532542 1.55953 0.414416 1.63749 0.314824 1.73612C0.215232 1.83476 0.136142 1.95213 0.0821097 2.08147C0.0280776 2.21081 0.000171736 2.34956 0 2.48973V5H20V2.48973C19.9998 2.34956 19.9719 2.21081 19.9179 2.08147C19.8639 1.95213 19.7848 1.83476 19.6852 1.73612C19.5856 1.63749 19.4675 1.55953 19.3376 1.50675C19.2078 1.45396 19.0687 1.42739 18.9286 1.42857Z" fill="white"/>
</svg>

<svg xmlns="http://www.w3.org/2000/svg" fill="none" viewBox="0 0 20 20"><path fill="#fff" d="M0 18.93A1.07 1.07 0 0 0 1.07 20h17.86A1.07 1.07 0 0 0 20 18.93V6.43H0v12.5Zm14.29-10.9a.18.18 0 0 1 .17-.17h1.79a.18.18 0 0 1 .18.18v1.78a.18.18 0 0 1-.18.18h-1.79a.18.18 0 0 1-.17-.18V8.04Zm0 3.58a.18.18 0 0 1 .17-.18h1.79a.18.18 0 0 1 .18.18v1.78a.18.18 0 0 1-.18.18h-1.79a.18.18 0 0 1-.17-.18v-1.78ZM10.7 8.04a.18.18 0 0 1 .18-.18h1.79a.18.18 0 0 1 .18.18v1.78a.18.18 0 0 1-.18.18h-1.79a.18.18 0 0 1-.18-.18V8.04Zm0 3.57a.18.18 0 0 1 .18-.18h1.79a.18.18 0 0 1 .18.18v1.78a.18.18 0 0 1-.18.18h-1.79a.18.18 0 0 1-.18-.18v-1.78Zm0 3.57a.18.18 0 0 1 .18-.18h1.79a.18.18 0 0 1 .18.18v1.78a.18.18 0 0 1-.18.18h-1.79a.18.18 0 0 1-.18-.18v-1.78ZM7.14 11.6a.18.18 0 0 1 .18-.18h1.79a.18.18 0 0 1 .18.18v1.78a.18.18 0 0 1-.18.18H7.32a.18.18 0 0 1-.18-.18v-1.78Zm0 3.57a.18.18 0 0 1 .18-.18h1.79a.18.18 0 0 1 .18.18v1.78a.18.18 0 0 1-.18.18H7.32a.18.18 0 0 1-.18-.18v-1.78ZM3.57 11.6a.18.18 0 0 1 .18-.18h1.79a.18.18 0 0 1 .17.18v1.78a.18.18 0 0 1-.17.18H3.75a.18.18 0 0 1-.18-.18v-1.78Zm0 3.57a.18.18 0 0 1 .18-.18h1.79a.18.18 0 0 1 .17.18v1.78a.18.18 0 0 1-.17.18H3.75a.18.18 0 0 1-.18-.18v-1.78ZM18.93 1.43h-2.5V0H14.3v1.43H5.7V0H3.57v1.43h-2.5A1.06 1.06 0 0 0 0 2.49V5h20V2.49a1.06 1.06 0 0 0-1.07-1.06Z"/></svg>
